X:3064
T: Hundraårspolskan
C: Hök Pers
S: Utlärd av Kalle Almlöf
Z: Karin Arén
M: 3/4
L: 1/8
K: Dm
|: v(a>g) (f>e) f>a | v(g>e) c4 | v(d>c) (B>A) B>d | vc2 A4 | 
v(a>g) (f>e) f>a | v(g<b) (a2 a)>v(g | f>e) (c>e) g>e | vf2 (d2 d)>v(c | 
B>A) (G>A) B>d | c2 c4 | v(c>e) (a>g) f>e | v(c<a) f4 :|:
vA2 (F>A) F>A | d2 (dB) (G2 |  G)>u(F E>C) E>G | v(G<F) (F>A) c>B
vA2 (F>A) F>A | vc2 (cB) d2 | u(d2 c2) a>g | v(g<e) f4 :| 
(:musicend:)



(:music:)
